X: 13
T: The Humours Of Trim
R: jig
M: 6/8
L: 1/8
K: Dmaj
FGF DED | D2d cAG | FGF DED | A2F GFE |
FGF DED | D2d cAG | FGF GFG | A2F GFE :|
D2d cAd | cAd cAG | F2d cAG | A2F GFE |
D2d cde | fed cAG | FGF GFG | A2F GFE :|


Tune 88	Setting 12618

